svg/design/fold_horizontal_line.svg

<?xml version="1.0" encoding="UTF-8"?>
<svg width="24px" height="24px" viewBox="0 0 24 24" version="1.1" xmlns="http://www.w3.org/2000/svg" xmlns:xlink="http://www.w3.org/1999/xlink">
    <title>fold_horizontal_line</title>
    <g id="Icon" stroke="none" stroke-width="1" fill="none" fill-rule="evenodd">
        <g id="Design" transform="translate(-336.000000, -384.000000)" fill-rule="nonzero">
            <g id="fold_horizontal_line" transform="translate(336.000000, 384.000000)">
                <path d="M24,0 L24,24 L0,24 L0,0 L24,0 Z M12.5935,23.2578 L12.5819,23.2595 L12.5109,23.295 L12.4919,23.2987 L12.4767,23.295 L12.4057,23.2595 C12.3958,23.2564 12.387,23.259 12.3821,23.2649 L12.378,23.2758 L12.3609,23.7031 L12.3659,23.7235 L12.3769,23.7357 L12.4805,23.8097 L12.4953,23.8136 L12.5071,23.8097 L12.6107,23.7357 L12.6233,23.7197 L12.6267,23.7031 L12.6096,23.2758 C12.6076,23.2657 12.601,23.2593 12.5935,23.2578 Z M12.8584,23.1453 L12.8445,23.1473 L12.6598,23.2397 L12.6499,23.2499 L12.6472,23.2611 L12.6651,23.6906 L12.6699,23.7034 L12.6784,23.7105 L12.8793,23.8032 C12.8914,23.8069 12.9022,23.803 12.9078,23.7952 L12.9118,23.7812 L12.8777,23.1665 C12.8753,23.1546 12.8674,23.147 12.8584,23.1453 Z M12.143,23.1473 C12.1332,23.1424 12.1222,23.1453 12.1156,23.1526 L12.1099,23.1665 L12.0758,23.7812 C12.0751,23.7927 12.0828,23.8019 12.0926,23.8046 L12.1083,23.8032 L12.3092,23.7105 L12.3186,23.7024 L12.3225,23.6906 L12.3404,23.2611 L12.3372,23.2485 L12.3278,23.2397 L12.143,23.1473 Z" id="MingCute"></path>
                <path d="M13,4 C13,3.44772 12.5523,3 12,3 C11.4477,3 11,3.44772 11,4 L11,5 C11,5.55228 11.4477,6 12,6 C12.5523,6 13,5.55228 13,5 L13,4 Z M13,9 C13,8.44772 12.5523,8 12,8 C11.4477,8 11,8.44772 11,9 L11,10 C11,10.5523 11.4477,11 12,11 C12.5523,11 13,10.5523 13,10 L13,9 Z M12,13 C12.5523,13 13,13.4477 13,14 L13,15 C13,15.5523 12.5523,16 12,16 C11.4477,16 11,15.5523 11,15 L11,14 C11,13.4477 11.4477,13 12,13 Z M13,19 C13,18.4477 12.5523,18 12,18 C11.4477,18 11,18.4477 11,19 L11,20 C11,20.5523 11.4477,21 12,21 C12.5523,21 13,20.5523 13,20 L13,19 Z M17.5858,11 L18.7071,9.87874 C19.0976,9.48821 19.0976,8.85505 18.7071,8.46452 C18.3166,8.074 17.6834,8.074 17.2929,8.46452 L14.4645,11.293 C14.0739,11.6835 14.0739,12.3166 14.4645,12.7072 L17.2929,15.5356 C17.6834,15.9261 18.3166,15.9261 18.7071,15.5356 C19.0976,15.1451 19.0976,14.5119 18.7071,14.1214 L17.5857,13 L21,13 C21.5523,13 22,12.5523 22,12 C22,11.4477 21.5523,11 21,11 L17.5858,11 Z M2,12 C2,11.4477 2.44772,11 3,11 L6.41416,11 L5.29289,9.87874 C4.90237,9.48821 4.90237,8.85505 5.29289,8.46452 C5.68342,8.074 6.31658,8.074 6.70711,8.46452 L9.53553,11.293 C9.92606,11.6835 9.92606,12.3166 9.53553,12.7072 L6.70711,15.5356 C6.31658,15.9261 5.68342,15.9261 5.29289,15.5356 C4.90237,15.1451 4.90237,14.5119 5.29289,14.1214 L6.41427,13 L3,13 C2.44772,13 2,12.5523 2,12 Z" id="形状" fill="#09244B"></path>
            </g>
        </g>
    </g>
</svg>

<svg xmlns="http://www.w3.org/2000/svg" width="24" height="24"><g fill="none" fill-rule="nonzero"><path d="M24 0v24H0V0h24ZM12.594 23.258l-.012.002-.071.035-.02.004-.014-.004-.071-.036c-.01-.003-.019 0-.024.006l-.004.01-.017.428.005.02.01.013.104.074.015.004.012-.004.104-.074.012-.016.004-.017-.017-.427c-.002-.01-.009-.017-.016-.018Zm.264-.113-.014.002-.184.093-.01.01-.003.011.018.43.005.012.008.008.201.092c.012.004.023 0 .029-.008l.004-.014-.034-.614c-.003-.012-.01-.02-.02-.022Zm-.715.002a.023.023 0 0 0-.027.006l-.006.014-.034.614c0 .012.007.02.017.024l.015-.002.201-.093.01-.008.003-.011.018-.43-.003-.012-.01-.01-.184-.092Z"/><path fill="#09244B" d="M13 4a1 1 0 1 0-2 0v1a1 1 0 1 0 2 0V4Zm0 5a1 1 0 1 0-2 0v1a1 1 0 1 0 2 0V9Zm-1 4a1 1 0 0 1 1 1v1a1 1 0 1 1-2 0v-1a1 1 0 0 1 1-1Zm1 6a1 1 0 1 0-2 0v1a1 1 0 1 0 2 0v-1Zm4.586-8 1.121-1.121a1 1 0 0 0-1.414-1.414l-2.828 2.828a1 1 0 0 0 0 1.414l2.828 2.829a1 1 0 0 0 1.414-1.415L17.586 13H21a1 1 0 1 0 0-2h-3.414ZM2 12a1 1 0 0 1 1-1h3.414L5.293 9.879a1 1 0 0 1 1.414-1.414l2.829 2.828a1 1 0 0 1 0 1.414l-2.829 2.829a1 1 0 0 1-1.414-1.415L6.414 13H3a1 1 0 0 1-1-1Z"/></g></svg>
